Gurmukhi/0A42.svg

<svg enable-background="new 0 0 336 592" viewBox="0 0 336 592" xmlns="http://www.w3.org/2000/svg"><path d="m114.906189 452.092773c-1.975472-2.169525-5.462929-3.358215-4.84539-6.294036.780349-3.70987 3.407196-6.802857 5.8143-9.749726 1.272095-1.557342 2.720284-.167663 3.908203.71814 11.991539 8.941498 25.355416 14.378509 40.247689 16.198761 21.128936 2.582519 40.755767-1.427643 58.483459-13.328827 3.748901-2.516785 5.772064-2.511597 7.485535 1.756622.740234 1.843933 1.807495 3.559296 2.760055 5.314728 3.842118 7.080536 3.829392 7.143005-3.145614 11.628388-34.410797 22.128448-78.210587 19.743804-110.708237-6.24405z"/><path d="m185.271423 436.56366c-24.501327 3.504303-46.31134-1.399231-65.351257-17.149933-3.541161-2.929413-4.32019-5.460083-1.448715-9.11612 1.513557-1.927063 2.021759-4.576873 4.110092-6.046203 1.552422-.147217 2.639534.683563 3.764336 1.372467 27.516227 16.852539 55.156761 15.670349 82.870048.539673 5.555634-3.033203 5.519226-3.102112 8.374344 2.511261.377228.741699.753403 1.484466 1.106293 2.237854 5.504226 11.751251 6.989258 8.746185-4.874344 15.767944-8.618164 5.100861-18.155152 8.223358-28.550797 9.883057z"/><path d="m108.059982 266.323425c2.805664-4.388275 6.47419-5.726196 10.879662-3.857269 3.685036 1.563293 5.752281 4.600464 5.093567 8.71875-.665131 4.158356-3.154946 6.88974-7.535424 7.393738-6.408119.737274-10.4561-4.89621-8.437805-12.255219z"/><path d="m240.54213 261.904205c4.579772 1.656372 7.103134 4.577729 6.529663 9.128846-.488465 3.876312-2.669892 6.677917-6.901596 7.381408-4.108429.682984-7.094849-.841369-9.158387-4.358246-3.011398-5.132293 1.566834-13.555328 9.53032-12.152008z"/><path d="m169.09137 231.312347c-.911866-4.338943-.021759-7.722137 3.500961-9.987075 3.860825-2.4823 8.938904-1.393998 11.515701 2.320953 2.285843 3.295502 1.526474 8.829346-1.561111 11.376404-3.684738 3.039673-8.361496 2.72876-11.652573-.842774-.666305-.723083-1.111465-1.649917-1.802978-2.867508z"/><path d="m224.867859 239.67955c5.087219.498749 7.83287 3.284561 8.144302 7.745041.274948 3.938263-1.675873 7.195236-5.673507 8.472656-4.072556 1.301361-7.601944.240784-10.047364-3.438766-3.563812-5.362366.099518-11.866135 7.576569-12.778931z"/><path d="m101.717743 295.082458c1.635887-5.959198 4.813385-8.743347 9.238357-8.136749 3.930489.538788 6.780373 2.558869 7.416222 6.79184.798035 5.312744-1.998474 9.262512-7.076874 10.092804-4.769867.779815-8.502128-2.465607-9.577705-8.747895z"/><path d="m249.227432 288.66748c4.241669 5.200684 3.96431 10.768921-.356781 13.723603-3.889282 2.659393-9.281189 1.673767-11.849228-2.364807-2.194351-3.450928-2.100082-7.092774.639267-10.14737 3.195526-3.563202 7.112503-3.959228 11.566742-1.211426z"/><path d="m230.610886 348.62796c-3.578217 3.058411-7.226822 3.752777-10.791748 1.157959-2.976029-2.166199-4.667695-5.227997-3.469208-9.137695.999649-3.261109 2.973251-5.532501 6.560303-6.009308 3.583633-.476379 6.585937.439392 8.700164 3.563934 2.419922 3.576386 1.646271 6.911072-.999511 10.42511z"/><path d="m123.31797 323.962585c-2.594673 4.442811-6.081428 6.189606-10.680908 4.513459-3.643303-1.327729-5.674889-4.225952-5.480301-8.096619.214981-4.276306 2.61747-7.102203 6.906525-8.066437 6.271538-1.409942 10.998756 4.284821 9.254684 11.649597z"/><path d="m206.783798 349.745422c3.869919 2.829224 4.948487 6.293213 3.312714 10.310425-1.361679 3.344086-4.028015 5.160492-7.765396 5.246826-3.818665.088166-6.242951-1.926757-7.824707-5.144256-1.594986-3.244385-.706452-6.285004 1.466018-8.80661 2.885636-3.349427 6.590943-3.402039 10.811371-1.606385z"/><path d="m128.294861 351.194916c-5.218521-1.568238-7.4338-4.794373-6.734207-9.849274.588249-4.250275 3.237671-6.329681 7.36644-6.753845 4.458358-.458038 7.345382 1.66159 8.855102 5.681244 2.067749 5.505432-2.025894 10.382812-9.487335 10.921875z"/><path d="m231.238876 316.487976c2.856217-4.060547 6.412705-5.341309 10.652741-3.615539 3.572616 1.454132 5.534347 4.450134 5.204086 8.287811-.345337 4.01297-2.781387 6.694275-6.772629 7.714508-6.57814 1.681457-11.319275-4.494629-9.084198-12.38678z"/><path d="m201.245483 242.273071c-5.55838-1.955673-8.126999-5.243042-7.379242-9.369217.703202-3.880325 2.717728-6.721542 7.013184-7.214019 5.316666-.609559 9.421738 2.423538 9.933334 7.32463.532471 5.101075-3.059692 8.744538-9.567276 9.258606z"/><path d="m178.607742 353.920105c4.398743 1.445007 6.8499 3.881866 6.76532 8.45871-.06575 3.55896-1.573929 6.105011-4.728668 7.512787-3.271713 1.45996-6.488312 1.292694-9.214356-1.359131-2.629089-2.557495-3.505828-5.674103-2.207229-9.105286 1.533539-4.05191 4.683548-5.834412 9.384933-5.50708z"/><path d="m125.94651 255.587662c-4.129249-2.712281-5.627617-6.123703-4.097107-10.49878 1.22123-3.490997 3.802689-5.279266 7.55407-5.434005 4.00766-.165329 6.634872 1.743087 8.214554 5.264206 1.378586 3.072876.615921 5.950058-1.373261 8.396804-2.621216 3.224244-6.128708 3.652955-10.298256 2.271775z"/><path d="m158.424011 362.259827c-6.557358 5.128875-13.860031 3.00534-14.711349-3.920807-.461182-3.752259.497696-7.077973 4.144287-8.779755 3.546341-1.65506 7.14238-1.55661 10.066894 1.4758 3.252793 3.372802 3.084809 7.088195.500168 11.224762z"/><path d="m148.67807 226.090027c7.137741-.755432 11.001953 1.580261 11.61171 6.624451.515716 4.266387-1.863633 8.025604-5.870362 9.274826-4.014541 1.251632-8.236328-.553788-10.085769-4.313111-1.996048-4.057342-.537567-8.272415 4.344421-11.586166z"/></svg>

<svg version="1.1" id="Layer_1" xmlns="http://www.w3.org/2000/svg" xmlns:xlink="http://www.w3.org/1999/xlink" x="0px" y="0px"
	 width="100%" viewBox="0 0 336 592" enable-background="new 0 0 336 592" xml:space="preserve">
<path fill="#000000" opacity="1.000000" stroke="none" 
	d="
M114.906189,452.092773 
	C112.930717,449.923248 109.443260,448.734558 110.060799,445.798737 
	C110.841148,442.088867 113.467995,438.995880 115.875099,436.049011 
	C117.147194,434.491669 118.595383,435.881348 119.783302,436.767151 
	C131.774841,445.708649 145.138718,451.145660 160.030991,452.965912 
	C181.159927,455.548431 200.786758,451.538269 218.514450,439.637085 
	C222.263351,437.120300 224.286514,437.125488 225.999985,441.393707 
	C226.740219,443.237640 227.807480,444.953003 228.760040,446.708435 
	C232.602158,453.788971 232.589432,453.851440 225.614426,458.336823 
	C191.203629,480.465271 147.403839,478.080627 114.906189,452.092773 
z"/>
<path fill="#000000" opacity="1.000000" stroke="none" 
	d="
M185.271423,436.563660 
	C160.770096,440.067963 138.960083,435.164429 119.920166,419.413727 
	C116.379005,416.484314 115.599976,413.953644 118.471451,410.297607 
	C119.985008,408.370544 120.493210,405.720734 122.581543,404.251404 
	C124.133965,404.104187 125.221077,404.934967 126.345879,405.623871 
	C153.862106,422.476410 181.502640,421.294220 209.215927,406.163544 
	C214.771561,403.130341 214.735153,403.061432 217.590271,408.674805 
	C217.967499,409.416504 218.343674,410.159271 218.696564,410.912659 
	C224.200790,422.663910 225.685822,419.658844 213.822220,426.680603 
	C205.204056,431.781464 195.667068,434.903961 185.271423,436.563660 
z"/>
<path fill="#000000" opacity="1.000000" stroke="none" 
	d="
M108.059982,266.323425 
	C110.865646,261.935150 114.534172,260.597229 118.939644,262.466156 
	C122.624680,264.029449 124.691925,267.066620 124.033211,271.184906 
	C123.368080,275.343262 120.878265,278.074646 116.497787,278.578644 
	C110.089668,279.315918 106.041687,273.682434 108.059982,266.323425 
z"/>
<path fill="#000000" opacity="1.000000" stroke="none" 
	d="
M240.542130,261.904205 
	C245.121902,263.560577 247.645264,266.481934 247.071793,271.033051 
	C246.583328,274.909363 244.401901,277.710968 240.170197,278.414459 
	C236.061768,279.097443 233.075348,277.573090 231.011810,274.056213 
	C228.000412,268.923920 232.578644,260.500885 240.542130,261.904205 
z"/>
<path fill="#000000" opacity="1.000000" stroke="none" 
	d="
M169.091370,231.312347 
	C168.179504,226.973404 169.069611,223.590210 172.592331,221.325272 
	C176.453156,218.842972 181.531235,219.931274 184.108032,223.646225 
	C186.393875,226.941727 185.634506,232.475571 182.546921,235.022629 
	C178.862183,238.062302 174.185425,237.751389 170.894348,234.179855 
	C170.228043,233.456772 169.782883,232.529938 169.091370,231.312347 
z"/>
<path fill="#000000" opacity="1.000000" stroke="none" 
	d="
M224.867859,239.679550 
	C229.955078,240.178299 232.700729,242.964111 233.012161,247.424591 
	C233.287109,251.362854 231.336288,254.619827 227.338654,255.897247 
	C223.266098,257.198608 219.736710,256.138031 217.291290,252.458481 
	C213.727478,247.096115 217.390808,240.592346 224.867859,239.679550 
z"/>
<path fill="#000000" opacity="1.000000" stroke="none" 
	d="
M101.717743,295.082458 
	C103.353630,289.123260 106.531128,286.339111 110.956100,286.945709 
	C114.886589,287.484497 117.736473,289.504578 118.372322,293.737549 
	C119.170357,299.050293 116.373848,303.000061 111.295448,303.830353 
	C106.525581,304.610168 102.793320,301.364746 101.717743,295.082458 
z"/>
<path fill="#000000" opacity="1.000000" stroke="none" 
	d="
M249.227432,288.667480 
	C253.469101,293.868164 253.191742,299.436401 248.870651,302.391083 
	C244.981369,305.050476 239.589462,304.064850 237.021423,300.026276 
	C234.827072,296.575348 234.921341,292.933502 237.660690,289.878906 
	C240.856216,286.315704 244.773193,285.919678 249.227432,288.667480 
z"/>
<path fill="#000000" opacity="1.000000" stroke="none" 
	d="
M230.610886,348.627960 
	C227.032669,351.686371 223.384064,352.380737 219.819138,349.785919 
	C216.843109,347.619720 215.151443,344.557922 216.349930,340.648224 
	C217.349579,337.387115 219.323181,335.115723 222.910233,334.638916 
	C226.493866,334.162537 229.496170,335.078308 231.610397,338.202850 
	C234.030319,341.779236 233.256668,345.113922 230.610886,348.627960 
z"/>
<path fill="#000000" opacity="1.000000" stroke="none" 
	d="
M123.317970,323.962585 
	C120.723297,328.405396 117.236542,330.152191 112.637062,328.476044 
	C108.993759,327.148315 106.962173,324.250092 107.156761,320.379425 
	C107.371742,316.103119 109.774231,313.277222 114.063286,312.312988 
	C120.334824,310.903046 125.062042,316.597809 123.317970,323.962585 
z"/>
<path fill="#000000" opacity="1.000000" stroke="none" 
	d="
M206.783798,349.745422 
	C210.653717,352.574646 211.732285,356.038635 210.096512,360.055847 
	C208.734833,363.399933 206.068497,365.216339 202.331116,365.302673 
	C198.512451,365.390839 196.088165,363.375916 194.506409,360.158417 
	C192.911423,356.914032 193.799957,353.873413 195.972427,351.351807 
	C198.858063,348.002380 202.563370,347.949768 206.783798,349.745422 
z"/>
<path fill="#000000" opacity="1.000000" stroke="none" 
	d="
M128.294861,351.194916 
	C123.076340,349.626678 120.861061,346.400543 121.560654,341.345642 
	C122.148903,337.095367 124.798325,335.015961 128.927094,334.591797 
	C133.385452,334.133759 136.272476,336.253387 137.782196,340.273041 
	C139.849945,345.778473 135.756302,350.655853 128.294861,351.194916 
z"/>
<path fill="#000000" opacity="1.000000" stroke="none" 
	d="
M231.238876,316.487976 
	C234.095093,312.427429 237.651581,311.146667 241.891617,312.872437 
	C245.464233,314.326569 247.425964,317.322571 247.095703,321.160248 
	C246.750366,325.173218 244.314316,327.854523 240.323074,328.874756 
	C233.744934,330.556213 229.003799,324.380127 231.238876,316.487976 
z"/>
<path fill="#000000" opacity="1.000000" stroke="none" 
	d="
M201.245483,242.273071 
	C195.687103,240.317398 193.118484,237.030029 193.866241,232.903854 
	C194.569443,229.023529 196.583969,226.182312 200.879425,225.689835 
	C206.196091,225.080276 210.301163,228.113373 210.812759,233.014465 
	C211.345230,238.115540 207.753067,241.759003 201.245483,242.273071 
z"/>
<path fill="#000000" opacity="1.000000" stroke="none" 
	d="
M178.607742,353.920105 
	C183.006485,355.365112 185.457642,357.801971 185.373062,362.378815 
	C185.307312,365.937775 183.799133,368.483826 180.644394,369.891602 
	C177.372681,371.351562 174.156082,371.184296 171.430038,368.532471 
	C168.800949,365.974976 167.924210,362.858368 169.222809,359.427185 
	C170.756348,355.375275 173.906357,353.592773 178.607742,353.920105 
z"/>
<path fill="#000000" opacity="1.000000" stroke="none" 
	d="
M125.946510,255.587662 
	C121.817261,252.875381 120.318893,249.463959 121.849403,245.088882 
	C123.070633,241.597885 125.652092,239.809616 129.403473,239.654877 
	C133.411133,239.489548 136.038345,241.397964 137.618027,244.919083 
	C138.996613,247.991959 138.233948,250.869141 136.244766,253.315887 
	C133.623550,256.540131 130.116058,256.968842 125.946510,255.587662 
z"/>
<path fill="#000000" opacity="1.000000" stroke="none" 
	d="
M158.424011,362.259827 
	C151.866653,367.388702 144.563980,365.265167 143.712662,358.339020 
	C143.251480,354.586761 144.210358,351.261047 147.856949,349.559265 
	C151.403290,347.904205 154.999329,348.002655 157.923843,351.035065 
	C161.176636,354.407867 161.008652,358.123260 158.424011,362.259827 
z"/>
<path fill="#000000" opacity="1.000000" stroke="none" 
	d="
M148.678070,226.090027 
	C155.815811,225.334595 159.680023,227.670288 160.289780,232.714478 
	C160.805496,236.980865 158.426147,240.740082 154.419418,241.989304 
	C150.404877,243.240936 146.183090,241.435516 144.333649,237.676193 
	C142.337601,233.618851 143.796082,229.403778 148.678070,226.090027 
z"/>
</svg>
